X: 100102
M: C|
L: 1/16
K: C
[|\
E2z2 (.E3.E) E4 E4 | A8- A2z2 (uAGFE) | F2z2 (uGFED) D2z2 (uFEDC) | B,2z2 z4 z4 (u^FGBA) |
"^>"^f16 | g4 (.g3.g) g4 g4 | c'12 (b2a2) | (ua2g2f2e2) e2z2 (ue3d) |
c8- c2z2 (ud'c'ba) | g2z2 (uagfe) d2z2 (ugfed) | ve2z2 vc6z2 (ud'c'ba) | g2z2 (uagfe) d2z2 (ugfed) |
ve2z2 vc6z2 {d}(ucBcd) | e2z2 (.e3.e) e4 e4 | a8- a2z2 (uagfe) | f2z2 (ugfed) d2z2 (ugfed) |
c8- c2z2 (ud'c'ba) | g2z2 (uagfe) d2z2 (ugfed) | ve2z2 vc6z2 (ud'c'ba) | g2z2 (uagfe) d2z2 (ugfed) |
e2fg (^ga)bc' | c'2fe (ed)=gf | e2fg (^ga)bc' (c'b)ag (gf)ed | c6z2 z4 (.e3.e) |
c4 e4 c4 e4 | c8- c2z2 (u.e3.e) | c4 e4 c4 e4 | c8- c2z2 z4 |]


